!!!OTL: Das Schwabentoechterlein Maria unser frowe,
!!!ARE: Europa, Mitteleuropa, Deutschland
!!!YOR: 4, S.50
!!    1349 Handschrift
!!!SCT: Q1073G
!!!YEM: Copyright 1995, estate of Helmut Schaffrath.
**kern
*ICvox
*Ivox
*M4/4
*k[f#c#]
*D:
{4dd
=1
4dd
4dd
4ee
4dd
=2
4ee
8ccn
8b
2a}
=3
{2dd
4ccn
4b
=4
4.ccn
8b
4a}
{4ccn
=5
4ccn
4b
4ccn
4a
=6
4g
4fn
4e
4d}
=7
{4fn
4g
4a
4b
=8
4.ccn
8b
2a}
=9
{4a
4g
4fn
4g
=10
4fn
4e
4d}
==
!!!AGN: geistlich, Geissler - Lied, Brauchtum
!! Melodievergleich zu Q0073, D, E und F; anderes Lied "Viertes
!!    Geissler - Lied" .
!!!ONB: ESAC (Essen Associative Code) Database: BALLADE
!!!AMT: simple quadruple
!!!AIN: vox
!!!EED: Helmut Schaffrath
!!!EEV: 1.0
*-
